build/img/icon-phone.svg

<svg width="24" height="24" viewBox="0 0 24 24" fill="none" xmlns="http://www.w3.org/2000/svg">
<path d="M18.2466 15.8769C17.4625 15.1028 16.4836 15.1028 15.7045 15.8769C15.1102 16.4662 14.5158 17.0555 13.9315 17.6549C13.7717 17.8197 13.6368 17.8546 13.4421 17.7448C13.0575 17.535 12.648 17.3652 12.2784 17.1355C10.5554 16.0517 9.11201 14.6583 7.83347 13.0901C7.19919 12.311 6.63483 11.4769 6.24029 10.538C6.16038 10.3482 6.17536 10.2234 6.33018 10.0685C6.9245 9.49419 7.50384 8.90486 8.08817 8.31553C8.90224 7.49647 8.90224 6.53756 8.08318 5.7135C7.61871 5.24404 7.15424 4.78456 6.68977 4.3151C6.21032 3.83565 5.73586 3.3512 5.25141 2.87674C4.46731 2.11262 3.48843 2.11262 2.70932 2.88174C2.11 3.47107 1.53566 4.07537 0.926355 4.65471C0.362 5.1891 0.0773248 5.84336 0.0173933 6.60748C-0.0774984 7.85106 0.227154 9.02472 0.656663 10.1684C1.53566 12.5357 2.87413 14.6383 4.49728 16.5661C6.68977 19.1731 9.30678 21.2358 12.3683 22.7241C13.7467 23.3933 15.1751 23.9077 16.7283 23.9926C17.7971 24.0526 18.726 23.7829 19.4702 22.9488C19.9796 22.3795 20.5539 21.8601 21.0933 21.3157C21.8924 20.5066 21.8974 19.5277 21.1033 18.7286C20.1544 17.7747 19.2005 16.8258 18.2466 15.8769Z" fill="#00B200"/>
<path d="M17.2927 11.8964L19.1356 11.5818C18.8459 9.88871 18.0468 8.35546 16.8332 7.13685C15.5497 5.85331 13.9265 5.04424 12.1385 4.79452L11.8788 6.64741C13.2623 6.84219 14.5208 7.46647 15.5147 8.46034C16.4536 9.39926 17.0679 10.5879 17.2927 11.8964Z" fill="#00B200"/>
<path d="M20.1744 3.88556C18.0468 1.75799 15.3549 0.414527 12.3833 0L12.1236 1.85288C14.6906 2.21247 17.018 3.37614 18.8559 5.20905C20.5989 6.95206 21.7426 9.15454 22.1571 11.5768L24 11.2621C23.5156 8.45534 22.1921 5.90825 20.1744 3.88556Z" fill="#00B200"/>
</svg>

<svg width="24" height="24" fill="none" xmlns="http://www.w3.org/2000/svg"><path d="M18.247 15.877c-.785-.774-1.763-.774-2.543 0-.594.59-1.188 1.178-1.773 1.778-.16.165-.294.2-.489.09-.385-.21-.794-.38-1.164-.61-1.723-1.083-3.166-2.477-4.445-4.045-.634-.779-1.198-1.613-1.593-2.552-.08-.19-.065-.315.09-.47.595-.574 1.174-1.163 1.758-1.752.814-.82.814-1.778-.005-2.603-.464-.469-.929-.928-1.393-1.398-.48-.48-.954-.964-1.439-1.438-.784-.764-1.763-.764-2.542.005-.599.59-1.173 1.193-1.783 1.773-.564.534-.849 1.188-.909 1.952-.094 1.244.21 2.418.64 3.561.879 2.368 2.217 4.47 3.84 6.398 2.193 2.607 4.81 4.67 7.871 6.158 1.379.67 2.807 1.184 4.36 1.269 1.07.06 1.998-.21 2.742-1.044.51-.57 1.084-1.089 1.623-1.633.8-.81.804-1.788.01-2.587a768.058 768.058 0 00-2.856-2.852zm-.954-3.981l1.843-.314a8.237 8.237 0 00-2.303-4.445 8.192 8.192 0 00-4.694-2.342l-.26 1.852a6.356 6.356 0 013.636 1.813 6.356 6.356 0 011.778 3.436zm2.881-8.01A13.589 13.589 0 0012.384 0l-.26 1.853a11.783 11.783 0 016.732 3.356 11.773 11.773 0 013.301 6.368L24 11.262a13.688 13.688 0 00-3.826-7.376z" fill="#00B200"/></svg>
